icons/Barrel.svg

<svg width="24" height="24" viewBox="0 0 24 24" fill="none" xmlns="http://www.w3.org/2000/svg">
<path fill-rule="evenodd" clip-rule="evenodd" d="M4,3c0,-0.41421 0.33579,-0.75 0.75,-0.75h1.25h12h1.25c0.4142,0 0.75,0.33579 0.75,0.75c0,0.41421 -0.3358,0.75 -0.75,0.75h-0.5v7.5h0.5c0.4142,0 0.75,0.3358 0.75,0.75c0,0.4142 -0.3358,0.75 -0.75,0.75h-0.5v7.5h0.5c0.4142,0 0.75,0.3358 0.75,0.75c0,0.4142 -0.3358,0.75 -0.75,0.75h-1.25h-12h-1.25c-0.41421,0 -0.75,-0.3358 -0.75,-0.75c0,-0.4142 0.33579,-0.75 0.75,-0.75h0.5v-7.5h-0.5c-0.41421,0 -0.75,-0.3358 -0.75,-0.75c0,-0.4142 0.33579,-0.75 0.75,-0.75h0.5v-7.5h-0.5c-0.41421,0 -0.75,-0.33579 -0.75,-0.75zM6.75,3.75v7.5h5.25h5.25v-7.5zM17.25,12.75h-5.25h-5.25v7.5h10.5z" fill="#002B51"/>
</svg>

<svg width="24" height="24" viewBox="0 0 24 24" fill="none" xmlns="http://www.w3.org/2000/svg">
<path fill-rule="evenodd" clip-rule="evenodd" d="M4 3C4 2.58579 4.33579 2.25 4.75 2.25H6H18H19.25C19.6642 2.25 20 2.58579 20 3C20 3.41421 19.6642 3.75 19.25 3.75H18.75V11.25H19.25C19.6642 11.25 20 11.5858 20 12C20 12.4142 19.6642 12.75 19.25 12.75H18.75V20.25H19.25C19.6642 20.25 20 20.5858 20 21C20 21.4142 19.6642 21.75 19.25 21.75H18H6H4.75C4.33579 21.75 4 21.4142 4 21C4 20.5858 4.33579 20.25 4.75 20.25H5.25V12.75H4.75C4.33579 12.75 4 12.4142 4 12C4 11.5858 4.33579 11.25 4.75 11.25H5.25V3.75H4.75C4.33579 3.75 4 3.41421 4 3ZM6.75 3.75V11.25H12H17.25V3.75H6.75ZM17.25 12.75H12H6.75V20.25H17.25V12.75Z" fill="#002B51"/>
</svg>
